sites/Makheev/images/logo.svg

<svg width="148" height="48" viewBox="0 0 148 48" fill="none" xmlns="http://www.w3.org/2000/svg">
<g clip-path="url(#clip0_1_27)">
<path d="M46.4498 2.64967C45.1557 5.22959 41.9547 12.6298 40.933 22.4064C40.5244 25.7332 41.0011 27.702 39.707 28.4488L39.8433 28.8562C41.9547 28.0414 44.066 27.4305 46.1774 26.8194L46.1093 26.3441C45.2238 26.2762 45.4282 22.8137 45.4282 21.2522C45.4282 19.5549 45.6325 17.3145 48.425 16.0924C48.9018 15.8887 49.4466 15.685 50.0596 15.6172V22.9495C50.0596 24.511 49.9234 25.1221 49.1061 25.5973L49.2423 26.1405C51.3536 25.6653 53.465 25.19 55.6445 24.7827L55.5764 24.2395C54.691 24.2395 54.6229 23.3569 54.6229 22.0669C54.6229 16.975 54.6229 11.951 54.6229 6.85901C54.691 3.53228 54.1461 1.42761 56.7342 0.816577V0.273438C52.7839 0.273438 48.8336 0.273438 44.9514 0.273438V0.816577C45.9731 0.884473 46.7222 1.63128 46.4498 2.64967ZM49.9915 5.09381C49.9915 7.40215 49.9915 9.57473 49.9915 11.883C49.1061 12.0189 47.5396 12.4941 46.7222 12.9694C47.4715 10.3216 48.5612 7.40215 49.9915 5.09381Z" fill="white"/>
<path d="M88.7461 3.2607V21.3201C88.7461 21.999 88.5416 23.289 87.7931 23.4927L87.7246 24.0358C92.3563 24.6468 96.579 25.3936 100.802 26.5479L100.938 26.0726C100.869 25.0542 100.529 23.968 100.325 22.8816C99.9162 23.4927 98.2814 23.5606 97.0555 23.2211C94.1271 22.4064 93.3777 21.7954 93.1057 20.3696C93.1057 16.4998 93.1057 12.2904 93.1057 8.42054C94.2632 7.74162 95.898 7.74162 98.6219 9.3031C98.6219 7.94529 98.6219 6.65533 98.6219 5.29748H93.1057V3.2607C94.6721 2.64967 97.1239 2.85336 99.5758 3.66806C99.9162 2.64967 100.461 1.83497 100.802 0.816577V0.273438C96.2385 0.273438 91.7429 0.273438 87.1797 0.273438V0.816577C88.474 1.29182 88.6785 1.90285 88.7461 3.2607Z" fill="white"/>
<path d="M74.6446 3.2607V20.4376C74.6446 21.6596 74.5084 22.4064 73.8274 22.678V23.2211C78.1182 23.2211 82.4772 23.4248 86.7679 23.9001L86.8363 23.3569L85.8824 20.3696C84.3841 22.0669 79.0036 21.2522 78.9355 18.6723C78.9355 14.8024 78.9355 12.2225 78.9355 8.35265C80.0933 7.67372 81.7279 7.67372 84.4522 9.23521C84.4522 7.8774 84.4522 6.58744 84.4522 5.22959H79.0036V3.19282C81.115 2.51389 83.2944 2.98914 85.4739 3.60017C85.8149 2.58178 86.3589 1.76707 86.6994 0.748685V0.273438C82.1366 0.273438 77.5733 0.273438 73.0781 0.273438V0.816577C74.4403 1.29182 74.5765 1.90285 74.6446 3.2607Z" fill="white"/>
<path d="M102.844 3.26017C102.844 10.1852 102.844 17.1103 102.844 24.0353C102.844 25.0537 102.708 26.2078 101.618 26.2078L101.413 26.6831C105.772 27.8372 110.268 29.4667 114.354 31.3677C115.58 31.775 115.58 29.4667 115.443 28.3804C114.626 14.5982 112.106 13.2403 109.518 9.50628C113.605 5.36484 113.332 1.83443 112.106 0.680255C111.425 0.137115 110.472 0.2729 109.45 0.2729C106.658 0.2729 104.138 0.2729 101.277 0.2729V0.81604C102.775 1.1555 102.844 1.97022 102.844 3.26017ZM107.202 3.46385C107.338 2.30968 109.654 2.17389 110.063 3.46385C110.199 5.84009 108.973 8.01264 107.202 9.30263C107.202 7.40161 107.202 5.43273 107.202 3.46385ZM107.202 11.6109C107.679 11.3394 107.816 11.0678 108.224 10.7962C111.085 14.3946 111.494 19.0791 111.698 23.6959C111.766 24.7142 112.106 26.4115 110.88 26.6831C109.927 26.6152 107.338 26.2078 107.202 25.2573C107.202 20.7085 107.202 16.0919 107.202 11.6109Z" fill="white"/>
<path d="M116.67 3.2607V28.8562C116.67 30.5535 116.398 31.504 115.444 31.3003L115.24 31.7756C118.918 33.5408 122.937 35.7133 126.07 38.429C128.181 39.5832 129.611 37.4785 129.611 33.4729C129.611 26.4799 127.432 21.1164 123.549 15.4814C122.187 13.5124 121.098 12.1546 121.029 11.4078C121.029 5.97641 121.029 7.67372 121.029 3.3286C121.166 1.83497 122.119 1.15604 123.549 0.816577C123.618 0.816577 123.618 0.816577 123.685 0.816577C123.685 0.6129 123.685 0.477114 123.685 0.273438C112.993 0.273438 123.822 0.273438 113.129 0.273438C113.129 1.02025 112.993 0.409222 113.878 3.66806C114.355 3.05703 115.785 2.71757 116.67 3.2607ZM121.029 14.8024C122.051 16.364 122.868 17.9255 123.549 19.487C126.137 25.6653 126.07 31.504 126.07 32.794C126.07 33.5408 125.865 33.7444 125.32 33.8123C124.503 33.8123 122.119 32.5224 121.097 31.0966C121.029 26.2084 121.029 19.0118 121.029 14.8024Z" fill="white"/>
<path d="M56.2578 24.1037L56.394 24.6468C58.7778 24.2395 61.1617 23.9001 63.6817 23.6963L63.6135 23.1532C62.8643 22.9495 63.0686 21.7275 63.0686 20.9806C63.0686 16.2282 63.4773 13.1051 64.7714 9.98204C65.8611 13.0372 66.3379 16.1602 66.4741 20.7091C66.4741 21.4559 66.6103 22.678 65.8611 23.0174V23.5606C68.1087 23.3569 70.4244 23.289 72.7401 23.2211V22.678C71.8547 22.5422 71.7866 21.4559 71.446 20.5054C69.8115 13.5803 69.4709 10.1858 67.8363 6.9948C70.765 3.12492 69.4028 1.29182 72.3996 0.816577V0.273438C70.4925 0.273438 67.7001 0.273438 65.793 0.273438V0.816577C66.2017 0.816577 66.4741 1.02025 66.5422 1.69918C66.4741 3.60017 66.2017 4.48278 64.7714 5.77273C63.3411 4.48278 63.0686 3.60017 63.0005 1.69918C63.0005 1.02025 63.4092 0.952359 63.7498 0.816577V0.273438C61.8427 0.273438 59.0503 0.273438 57.0752 0.273438V0.816577C58.0968 1.02025 58.9821 1.5634 59.4589 2.92124C59.9357 4.48278 60.753 5.84062 61.6384 6.9948C60.2762 9.91416 59.7995 13.7162 57.7562 21.6596C57.4156 22.8816 57.4156 23.6284 56.2578 24.1037Z" fill="white"/>
<path d="M22.4758 42.7062C22.3396 42.2989 22.2715 41.8236 22.2715 41.4163C22.2715 38.5648 25.2002 36.5959 28.0607 36.5959C29.7635 36.5959 31.4662 37.0712 32.5559 38.429C43.7257 32.3866 55.3723 28.3131 73.8979 28.3131C86.4979 28.3131 99.0984 30.6214 109.042 35.2381C119.326 40.33 126.478 47.3908 135.263 47.3908C143.709 47.3908 147.932 40.941 147.932 34.5592C147.864 27.2267 142.211 22.1348 136.762 22.1348C134.515 22.1348 131.109 23.289 131.109 25.4615C131.109 27.9057 134.855 31.1645 134.855 33.1334C134.855 34.1518 134.378 34.8307 133.902 35.2381C133.288 35.8491 132.404 36.7996 132.404 37.6144C132.404 38.2253 133.016 38.8364 133.697 38.8364C134.106 38.8364 134.651 38.6327 135.059 37.8859C135.944 36.4601 136.217 35.2381 136.217 34.2197C136.217 32.5903 135.536 31.3682 135.536 30.214C135.536 28.2452 137.715 27.4984 139.146 27.4984C143.164 27.4984 144.594 33.405 144.594 35.306C144.594 40.7374 139.623 44.6073 134.038 44.6073C127.976 44.6073 120.075 37.207 109.315 32.5224C98.7571 27.9057 86.5663 25.7332 75.7367 25.7332C61.3658 25.7332 49.6512 27.6341 36.7787 33.405C35.2121 34.016 33.5094 34.4913 31.9429 34.4913C29.491 34.4913 27.4478 33.3371 27.0391 29.8066C27.0391 27.7699 27.0391 25.1221 27.0391 22.2706C27.0391 18.1292 27.0391 13.6483 26.971 10.661C27.7202 13.2409 29.6954 19.7586 30.4445 22.4064C31.6024 18.4686 32.5559 14.5309 34.1224 10.661V25.5294C33.9181 28.0414 32.8284 30.2819 31.9429 31.7756L32.0791 32.2508C34.2587 31.0288 36.7787 29.9425 39.4349 28.924L39.2987 28.5167C38.7538 28.3131 38.4133 28.0414 38.4133 26.0726C38.4133 23.289 38.4133 5.90851 38.4133 3.19281C38.4814 1.69918 39.8436 1.08815 41.6824 0.680792V0.273438C38.4814 0.273438 35.7571 0.273438 32.4878 0.273438V0.816577C33.4413 1.08815 33.7819 1.4955 33.7819 1.97075C33.7819 2.31021 33.6456 2.78546 33.4413 3.2607C32.4197 6.1122 31.4662 8.96367 30.4445 11.8151C29.6954 8.96367 28.9461 6.18008 28.197 3.3286C28.0607 2.78546 27.9926 2.3781 27.9926 2.03864C27.9926 1.42761 28.3332 1.15604 29.0823 0.816577V0.273438H19.2066V0.816577C20.5688 1.15604 21.999 1.83497 22.7483 2.78546C22.8845 2.98914 23.0207 3.2607 23.0207 3.53227C23.0889 4.27909 23.0889 5.22959 23.0889 6.31587C23.0889 17.3145 20.1602 44.8788 9.33084 44.8788C5.99355 44.8788 2.58813 41.9595 2.58813 37.7501C2.58813 33.2692 5.92545 30.2819 8.30925 29.8066C9.46712 29.5351 10.5568 30.4177 10.5568 31.5718C10.5568 33.2692 9.53522 35.917 8.85408 38.8364C8.78598 39.1079 8.71789 39.4474 8.71789 39.7869C8.71789 41.0769 9.33084 42.2989 10.4888 42.2989C11.2379 42.2989 11.7828 41.9595 11.7828 41.1448C11.7828 40.4658 11.3741 39.6511 10.5568 39.1758C10.3525 38.7685 10.2844 38.3611 10.2844 37.9538C10.2844 36.6638 11.1698 35.306 12.9407 33.7444C15.4607 31.7756 16.7547 29.1957 16.7547 27.2946C16.7547 25.801 15.9374 24.7147 14.1666 24.7147C11.1017 24.6468 0 29.1957 0 38.2253C0 43.9283 4.42706 48.0019 9.94389 48.0019C14.439 48.0019 19.0023 45.5578 22.4758 42.7062Z" fill="white"/>
</g>
<defs>
<clipPath id="clip0_1_27">
<rect width="148" height="48" fill="white"/>
</clipPath>
</defs>
</svg>

<svg width="148" height="48" fill="none" xmlns="http://www.w3.org/2000/svg"><g clip-path="url(#a)" fill="#fff"><path d="M46.45 2.65c-1.294 2.58-4.495 9.98-5.517 19.756-.409 3.327.068 5.296-1.226 6.043l.136.407c2.112-.815 4.223-1.426 6.334-2.037l-.068-.475c-.885-.068-.68-3.53-.68-5.092 0-1.697.203-3.938 2.996-5.16.477-.203 1.022-.407 1.635-.475v7.332c0 1.562-.137 2.173-.954 2.648l.136.543c2.112-.475 4.223-.95 6.403-1.357l-.069-.544c-.885 0-.953-.882-.953-2.172V6.859c.068-3.327-.477-5.431 2.111-6.042V.273H44.951v.544c1.022.067 1.771.814 1.499 1.833Zm3.541 2.444v6.789c-.885.136-2.451.611-3.269 1.086.75-2.647 1.84-5.567 3.27-7.875ZM88.746 3.26v18.06c0 .679-.204 1.969-.953 2.173l-.068.543c4.631.61 8.854 1.358 13.077 2.512l.136-.475c-.069-1.019-.409-2.105-.613-3.191-.409.61-2.044.679-3.27.34-2.928-.816-3.677-1.427-3.95-2.852V8.42c1.158-.678 2.793-.678 5.517.883V5.297h-5.516V3.261c1.566-.611 4.018-.408 6.47.407.34-1.018.885-1.833 1.226-2.851V.273H87.18v.544c1.294.475 1.498 1.086 1.566 2.444ZM74.645 3.26v17.178c0 1.222-.137 1.968-.818 2.24v.543c4.291 0 8.65.204 12.94.68l.07-.544-.955-2.987c-1.498 1.697-6.878.882-6.947-1.698V8.352c1.158-.678 2.793-.678 5.517.883V5.23h-5.448V3.193c2.111-.68 4.29-.204 6.47.407.34-1.018.885-1.833 1.225-2.851V.273H73.08v.544c1.361.475 1.498 1.086 1.566 2.444ZM102.844 3.26v20.775c0 1.019-.136 2.173-1.226 2.173l-.205.475a79.546 79.546 0 0 1 12.941 4.685c1.226.407 1.226-1.901 1.089-2.988-.817-13.782-3.337-15.14-5.925-18.874 4.087-4.141 3.814-7.672 2.588-8.826-.681-.543-1.634-.407-2.656-.407h-8.173v.543c1.498.34 1.567 1.154 1.567 2.444Zm4.358.204c.136-1.154 2.452-1.29 2.861 0 .136 2.376-1.09 4.549-2.861 5.839v-5.84Zm0 8.147c.477-.272.614-.543 1.022-.815 2.861 3.599 3.27 8.283 3.474 12.9.068 1.018.408 2.715-.818 2.987-.953-.068-3.542-.475-3.678-1.426V11.611Z"/><path d="M116.67 3.26v25.596c0 1.697-.272 2.648-1.226 2.444l-.204.476c3.678 1.765 7.697 3.937 10.83 6.653 2.111 1.154 3.541-.95 3.541-4.956 0-6.993-2.179-12.357-6.062-17.992-1.362-1.969-2.451-3.326-2.52-4.073v-8.08c.137-1.493 1.09-2.172 2.52-2.511h.136V.273h-10.556c0 .747-.136.136.749 3.395.477-.611 1.907-.95 2.792-.407Zm4.359 11.542a31.453 31.453 0 0 1 2.52 4.685c2.588 6.178 2.521 12.017 2.521 13.307 0 .747-.205.95-.75 1.018-.817 0-3.201-1.29-4.223-2.715-.068-4.889-.068-12.085-.068-16.295ZM56.258 24.104l.136.543c2.384-.407 4.768-.747 7.288-.95l-.069-.544c-.749-.203-.544-1.425-.544-2.172 0-4.753.408-7.876 1.702-10.999 1.09 3.055 1.567 6.178 1.703 10.727 0 .747.136 1.969-.613 2.308v.544c2.248-.204 4.563-.272 6.88-.34v-.543c-.886-.136-.954-1.222-1.295-2.173-1.635-6.925-1.975-10.32-3.61-13.51 2.929-3.87 1.567-5.703 4.564-6.178V.273h-6.607v.544c.409 0 .681.203.75.882-.069 1.901-.341 2.784-1.772 4.074-1.43-1.29-1.702-2.173-1.77-4.074 0-.679.408-.747.749-.882V.273h-6.675v.544c1.022.203 1.907.746 2.384 2.104.477 1.562 1.294 2.92 2.18 4.074-1.363 2.92-1.84 6.721-3.883 14.665-.34 1.222-.34 1.968-1.498 2.444Z"/><path d="M22.476 42.706a4.25 4.25 0 0 1-.204-1.29c0-2.851 2.928-4.82 5.789-4.82 1.703 0 3.405.475 4.495 1.833 11.17-6.042 22.816-10.116 41.342-10.116 12.6 0 25.2 2.308 35.144 6.925 10.284 5.092 17.436 12.153 26.221 12.153 8.446 0 12.669-6.45 12.669-12.832-.068-7.332-5.721-12.424-11.17-12.424-2.247 0-5.653 1.154-5.653 3.326 0 2.445 3.746 5.704 3.746 7.672a2.692 2.692 0 0 1-.953 2.105c-.614.611-1.498 1.562-1.498 2.376 0 .611.612 1.222 1.293 1.222.409 0 .954-.203 1.362-.95.885-1.426 1.158-2.648 1.158-3.666 0-1.63-.681-2.852-.681-4.006 0-1.969 2.179-2.716 3.61-2.716 4.018 0 5.448 5.907 5.448 7.808 0 5.431-4.971 9.301-10.556 9.301-6.062 0-13.963-7.4-24.723-12.085-10.558-4.616-22.749-6.789-33.578-6.789-14.371 0-26.086 1.901-38.958 7.672-1.567.611-3.27 1.086-4.836 1.086-2.452 0-4.495-1.154-4.904-4.684V22.27c0-4.142 0-8.623-.068-11.61.75 2.58 2.724 9.098 3.474 11.745 1.157-3.937 2.11-7.875 3.677-11.745v14.868c-.204 2.512-1.294 4.753-2.18 6.247l.137.475c2.18-1.222 4.7-2.308 7.356-3.327l-.136-.407c-.545-.204-.886-.476-.886-2.444V3.193c.068-1.494 1.43-2.105 3.27-2.512V.273h-9.195v.544c.953.271 1.294.679 1.294 1.154 0 .34-.136.814-.34 1.29-1.022 2.851-1.976 5.703-2.997 8.554-.75-2.851-1.499-5.635-2.248-8.486-.136-.544-.204-.95-.204-1.29 0-.611.34-.883 1.09-1.222V.273h-9.876v.544c1.362.339 2.792 1.018 3.541 1.968.136.204.273.476.273.747.068.747.068 1.698.068 2.784 0 10.998-2.929 38.563-13.758 38.563-3.337 0-6.743-2.92-6.743-7.129 0-4.48 3.337-7.468 5.721-7.943a1.827 1.827 0 0 1 2.248 1.765c0 1.697-1.022 4.345-1.703 7.264a3.995 3.995 0 0 0-.136.95c0 1.29.613 2.513 1.77 2.513.75 0 1.295-.34 1.295-1.154 0-.68-.409-1.494-1.226-1.97a2.656 2.656 0 0 1-.273-1.221c0-1.29.886-2.648 2.657-4.21 2.52-1.968 3.814-4.548 3.814-6.45 0-1.493-.818-2.58-2.588-2.58C11.102 24.648 0 29.197 0 38.226c0 5.703 4.427 9.777 9.944 9.777 4.495 0 9.058-2.444 12.532-5.296Z"/></g><defs><clipPath id="a"><path fill="#fff" d="M0 0h148v48H0z"/></clipPath></defs></svg>
